X: 11437
T: Easy Club, The
R: reel
M: 4/4
K: Amajor
AEAc BEGB|ceAc eAce|faag gace|Acec dcBc|
AEAc BEGB|ceAc eAce|fagf efec|dBGB A2 z2:|
faad zaga|eaac zaga|faad zfed|ceeB zdcB|
A2cA BcdB|cdec defg|agae face|dBGB A2 z2:|

